public/primaries/JustifyCenter.svg

<svg id="Layer_1" data-name="Layer 1" xmlns="http://www.w3.org/2000/svg" width="64" height="64" viewBox="0 0 64 64"><defs><style>.cls-1{fill-rule:evenodd}</style></defs><title>Icons 200</title><path class="cls-1" d="M18 48a2 2 0 0 1 2-2h24a2 2 0 0 1 0 4H20a2 2 0 0 1-2-2zm32-6H14a2 2 0 1 1 0-4h36a2 2 0 1 1 0 4zm0-8H14a2 2 0 1 1 0-4h36a2 2 0 1 1 0 4zm0-8H14a2 2 0 1 1 0-4h36a2 2 0 1 1 0 4zm0-8H14a2 2 0 1 1 0-4h36a2 2 0 1 1 0 4z"/></svg>

<svg id="Layer_1" data-name="Layer 1" xmlns="http://www.w3.org/2000/svg" width="64" height="64" viewBox="0 0 64 64">
  <defs>
    <style>
      .cls-1 {
        fill-rule: evenodd;
      }
    </style>
  </defs>
  <title>Icons 200</title>
  <path class="cls-1" d="M18,48a2,2,0,0,1,2-2H44a2,2,0,0,1,0,4H20A2,2,0,0,1,18,48Zm32-6H14a2,2,0,1,1,0-4H50A2,2,0,1,1,50,42Zm0-8H14a2,2,0,1,1,0-4H50A2,2,0,1,1,50,34Zm0-8H14a2,2,0,1,1,0-4H50A2,2,0,1,1,50,26Zm0-8H14a2,2,0,1,1,0-4H50A2,2,0,1,1,50,18Z"/>
</svg>
